react/features/base/icons/svg/rec.svg

<!-- Generated by IcoMoon.io -->
<svg version="1.1" xmlns="http://www.w3.org/2000/svg" width="32" height="32" viewBox="0 0 32 32">
<title>rec</title>
<path d="M16 32c-8.837 0-16-7.163-16-16s7.163-16 16-16c8.837 0 16 7.163 16 16s-7.163 16-16 16zM18.167 18.444h-3.456v-1.851h3.261v-1.26h-3.261v-1.777h3.456v-1.361h-5.052v7.61h5.052v-1.361zM23.087 20c1.839 0 3.181-1.134 3.313-2.779h-1.554c-0.153 0.838-0.84 1.376-1.754 1.376-1.205 0-1.95-0.997-1.95-2.6s0.745-2.595 1.945-2.595c0.909 0 1.601 0.575 1.754 1.45h1.554c-0.116-1.656-1.501-2.853-3.308-2.853-2.214 0-3.578 1.524-3.578 3.997 0 2.479 1.369 4.003 3.578 4.003zM7.196 17.047h1.305l1.422 2.758h1.807l-1.607-3.006c0.877-0.348 1.385-1.192 1.385-2.162 0-1.514-1.030-2.442-2.706-2.442h-3.202v7.61h1.596v-2.758zM7.196 13.482v2.341h1.4c0.803 0 1.274-0.432 1.274-1.165 0-0.722-0.497-1.176-1.289-1.176h-1.385z"></path>
</svg>

<svg xmlns="http://www.w3.org/2000/svg" width="32" height="32" viewBox="0 0 32 32"><path d="M16,32A16,16,0,1,1,32,16,16,16,0,0,1,16,32Zm2.167-13.556H14.711V16.593h3.261v-1.26H14.711V13.556h3.456V12.195H13.115v7.61h5.052ZM23.087,20A3.082,3.082,0,0,0,26.4,17.221H24.846A1.678,1.678,0,0,1,23.092,18.6c-1.2,0-1.95-1-1.95-2.6s.745-2.6,1.945-2.6a1.71,1.71,0,0,1,1.754,1.45h1.554A3.137,3.137,0,0,0,23.087,12c-2.214,0-3.578,1.524-3.578,4s1.369,4,3.578,4ZM7.2,17.047H8.5l1.422,2.758H11.73L10.123,16.8a2.247,2.247,0,0,0,1.385-2.162A2.389,2.389,0,0,0,8.8,12.195H5.6v7.61H7.2Zm0-3.565v2.341H8.6A1.119,1.119,0,0,0,9.87,14.658a1.15,1.15,0,0,0-1.289-1.176H7.2Z"/></svg>
